public/GitHub.svg

<svg width="50" height="50" viewBox="0 0 50 50" fill="none" xmlns="http://www.w3.org/2000/svg">
<path fill-rule="evenodd" clip-rule="evenodd" d="M25 2.2717C12.3854 2.2717 2.17292 12.8737 2.17292 25.93C2.17292 35.5168 7.67917 43.7667 15.6042 47.4775C16.4333 47.8667 17.2438 47.7122 17.8772 47.2166C18.2273 46.9319 18.5097 46.5667 18.702 46.1491C18.8942 45.7316 18.9913 45.2733 18.9853 44.8102V43.5709L16.1583 43.1709C16.1374 43.1681 16.1166 43.1645 16.0958 43.1601C14.5375 42.8428 13.4854 42.2709 12.7146 41.4471C12.0667 40.7536 11.6708 39.9233 11.3354 39.219L11.2187 38.9733C10.9087 38.2985 10.5702 37.6385 10.2042 36.995C9.92292 36.5298 9.70417 36.2907 9.4875 36.1406C8.9375 35.7603 8.40833 35.1145 8.40833 34.3081C8.40645 34.076 8.45408 33.8464 8.54777 33.6358C8.64145 33.4252 8.77885 33.2391 8.95 33.0908C9.27303 32.8238 9.67562 32.6838 10.0875 32.6951C10.55 32.6951 10.9854 32.8429 11.3479 33.0125C11.7187 33.1864 12.0875 33.4168 12.4312 33.656C13.2687 34.2386 14.0937 34.9278 14.7917 35.7777C15.5187 36.6603 16.0333 37.2211 16.8083 37.3362C17.4458 37.4319 18.0958 37.4342 18.602 37.4102C18.6725 36.9921 18.7885 36.5836 18.948 36.193C18.3297 36.0424 17.7197 35.8564 17.1208 35.6363C15.7583 35.1319 14.2396 34.3472 13.2187 33.1582C12.0979 31.8496 11.4042 30.6821 11.0167 29.3169C10.6396 27.9865 10.5771 26.5453 10.5771 24.7714C10.5771 22.0541 11.7042 19.7649 12.55 18.5496C12.225 17.4858 11.9915 16.3938 11.8521 15.2867C11.7598 14.5885 11.7605 13.8804 11.8542 13.1824C11.9583 12.5454 12.2187 11.7628 12.9042 11.2911C13.5646 10.8324 14.3396 10.852 14.9438 10.9694C15.5708 11.0933 16.2229 11.365 16.8228 11.6759C17.8 12.1802 18.7708 12.8541 19.498 13.4259C20.7522 13.0411 22.9708 12.5454 24.9772 12.4998H25.0228C27.0312 12.5454 29.15 13.0411 30.373 13.4237C31.1022 12.8541 32.0708 12.1781 33.0458 11.6759C33.6458 11.365 34.2958 11.0933 34.925 10.9694C35.5292 10.852 36.3042 10.8324 36.9667 11.2889C37.65 11.7628 37.9125 12.5454 38.0145 13.1824C38.1208 13.8454 38.0958 14.5867 38.0145 15.2867C37.8758 16.3937 37.643 17.4856 37.3188 18.5496C38.1647 19.767 39.2917 22.0562 39.2917 24.7714C39.2917 26.5453 39.2292 27.9865 38.8542 29.3146C38.4645 30.6842 37.7708 31.8496 36.65 33.1582C35.6292 34.3472 34.1103 35.1319 32.7478 35.6363C32.0247 35.9017 31.2857 36.1173 30.5353 36.282C30.7917 37.0907 30.8833 37.7449 30.8833 38.1211V44.8384C30.8833 45.8601 31.3397 46.7319 31.9875 47.2406C32.6167 47.7383 33.425 47.8928 34.2542 47.5145C42.2542 43.8363 47.825 35.5646 47.825 25.9279C47.825 12.8737 37.6167 2.2717 25 2.2717ZM19.7417 39.5863C19.2 39.6666 19.7397 39.5863 19.7397 39.5863H19.7333L19.7167 39.5906L19.6563 39.5993C19.3468 39.6372 19.0362 39.664 18.725 39.6799C17.9835 39.72 17.2402 39.6887 16.5042 39.5863C14.8562 39.3428 13.8542 38.1254 13.2062 37.3342L13.1437 37.2602C12.9319 37.0039 12.7043 36.762 12.4625 36.5363C12.6771 36.9493 12.9 37.4103 13.1396 37.906L13.1604 37.9495L13.2667 38.1755C13.6312 38.932 13.8708 39.4362 14.2687 39.8579C14.6562 40.271 15.2604 40.6711 16.4812 40.9233L20.2187 41.4515C20.4798 41.4883 20.7192 41.6228 20.8923 41.8299C21.0655 42.037 21.1608 42.3026 21.1603 42.5775V44.8102C21.1603 46.5493 20.3792 48.0992 19.1812 49.0383C18.5523 49.5397 17.8042 49.8526 17.0173 49.943C16.2306 50.0334 15.4351 49.8979 14.7167 49.5513C6.04583 45.4928 0 36.4559 0 25.93C0 11.5998 11.2021 0 25 0C38.798 0 50 11.5998 50 25.93C50 36.5103 43.8772 45.5709 35.1313 49.5948C34.4122 49.9348 33.6182 50.0646 32.834 49.9699C32.0497 49.8753 31.3048 49.56 30.6792 49.0578C30.0605 48.5609 29.5605 47.9211 29.2187 47.1886C28.8767 46.4561 28.702 45.6509 28.7083 44.8361V38.1188C28.7083 37.9667 28.6063 37.0884 28.0375 35.9081C27.959 35.7444 27.9195 35.5634 27.9222 35.3805C27.925 35.1973 27.97 35.0177 28.0533 34.8568C28.1367 34.6958 28.256 34.558 28.4013 34.4552C28.5465 34.3526 28.7133 34.2879 28.8875 34.2669C29.9555 34.1271 31.0062 33.8676 32.0208 33.4928C33.2583 33.0363 34.3687 32.4104 35.0292 31.6409C36.0103 30.4974 36.5 29.619 36.7688 28.6691C37.048 27.6842 37.1187 26.5387 37.1187 24.7714C37.1187 22.2909 35.8687 20.2063 35.2937 19.5345C35.1632 19.3826 35.0742 19.1971 35.0362 18.9969C34.998 18.7969 35.0122 18.5899 35.077 18.3976C35.4473 17.3022 35.7092 16.1703 35.8583 15.0193C35.925 14.4215 35.9292 13.9215 35.8708 13.5606C35.8578 13.4287 35.8195 13.3008 35.7583 13.1846C35.6148 13.1587 35.4678 13.1653 35.3272 13.2041C34.973 13.2737 34.5208 13.4476 34.0083 13.7128C32.9875 14.2389 31.925 15.0171 31.2667 15.5737C31.1215 15.6966 30.9483 15.7782 30.764 15.8106C30.5795 15.8429 30.3903 15.825 30.2147 15.7584C28.5278 15.1827 26.7732 14.8513 25 14.7737C22.9022 14.8258 20.4813 15.4476 19.6542 15.7584C19.4785 15.825 19.2892 15.8429 19.1048 15.8106C18.9205 15.7782 18.7473 15.6966 18.602 15.5737C17.7507 14.8584 16.8322 14.235 15.8604 13.7128C15.4431 13.4842 14.9991 13.3132 14.5396 13.2041C14.3995 13.1657 14.2532 13.159 14.1104 13.1846C14.0492 13.3008 14.0109 13.4287 13.9979 13.5606C13.9396 13.9215 13.9437 14.4215 14.0104 15.0193C14.1605 16.1701 14.4223 17.302 14.7917 18.3976C14.9229 18.7889 14.8417 19.2237 14.575 19.5345C14 20.2063 12.75 22.2909 12.75 24.7714C12.75 26.5366 12.8208 27.6842 13.1 28.6691C13.3708 29.619 13.8583 30.4951 14.8375 31.6409C15.5 32.4104 16.6083 33.0363 17.848 33.4928C18.862 33.8674 19.9118 34.1269 20.9792 34.2669C21.1988 34.2914 21.406 34.3852 21.5732 34.5356C21.7405 34.6862 21.8598 34.8862 21.9155 35.1092C21.9712 35.3323 21.9605 35.5676 21.8847 35.7841C21.809 36.0006 21.6718 36.1879 21.4917 36.3211C21.1478 36.5776 20.9208 37.0385 20.7937 37.5712C20.7282 37.8453 20.689 38.1256 20.6772 38.4081V38.4494C20.6797 38.7249 20.5863 38.9922 20.4143 39.2014C20.2422 39.4105 20.0032 39.5473 19.7417 39.5863V39.5863Z" fill="#1096E1"/>
</svg>

<svg xmlns="http://www.w3.org/2000/svg" width="50" height="50" fill="none" xmlns:v="https://vecta.io/nano"><path fill-rule="evenodd" d="M25 2.272c-12.615 0-22.827 10.602-22.827 23.658 0 9.587 5.506 17.837 13.431 21.548a2.1 2.1 0 0 0 2.273-.261 2.98 2.98 0 0 0 .825-1.068 3.11 3.11 0 0 0 .283-1.339v-1.239l-2.827-.4a.84.84 0 0 1-.062-.011c-1.558-.317-2.61-.889-3.381-1.713-.648-.694-1.044-1.524-1.379-2.228l-.117-.246a25.71 25.71 0 0 0-1.014-1.978c-.281-.465-.5-.704-.717-.854-.55-.38-1.079-1.026-1.079-1.832-.002-.232.046-.462.139-.672a1.56 1.56 0 0 1 .402-.545 1.71 1.71 0 0 1 1.138-.396c.463 0 .898.148 1.26.317.371.174.74.404 1.083.643.838.583 1.662 1.272 2.361 2.122.727.883 1.242 1.443 2.017 1.558a9.4 9.4 0 0 0 1.794.074 5.75 5.75 0 0 1 .346-1.217c-.618-.151-1.228-.337-1.827-.557-1.362-.504-2.881-1.289-3.902-2.478-1.121-1.309-1.815-2.476-2.202-3.841-.377-1.33-.44-2.772-.44-4.546 0-2.717 1.127-5.006 1.973-6.222a19.51 19.51 0 0 1-.698-3.263 7.97 7.97 0 0 1 .002-2.104c.104-.637.364-1.42 1.05-1.891.66-.459 1.435-.439 2.04-.322.627.124 1.279.396 1.879.707.977.504 1.948 1.178 2.675 1.75 1.254-.385 3.473-.88 5.479-.926h.046c2.008.046 4.127.541 5.35.924.729-.57 1.698-1.246 2.673-1.748.6-.311 1.25-.583 1.879-.707.604-.117 1.379-.137 2.042.319.683.474.946 1.257 1.048 1.893.106.663.081 1.404 0 2.104-.139 1.107-.371 2.199-.696 3.263.846 1.217 1.973 3.507 1.973 6.222 0 1.774-.062 3.215-.437 4.543-.39 1.37-1.083 2.535-2.204 3.844-1.021 1.189-2.54 1.974-3.902 2.478-.723.265-1.462.481-2.212.646.256.809.348 1.463.348 1.839v6.717c0 1.022.456 1.894 1.104 2.402.629.498 1.437.652 2.267.274 8-3.678 13.571-11.95 13.571-21.587C47.825 12.874 37.617 2.272 25 2.272zm-5.258 37.315c-.542.08-.002 0-.002 0h-.006l-.017.004-.06.009c-.309.038-.62.065-.931.081-.742.04-1.485.009-2.221-.094-1.648-.244-2.65-1.461-3.298-2.252l-.062-.074a7.7 7.7 0 0 0-.681-.724c.215.413.438.874.677 1.37l.021.044.106.226c.364.757.604 1.261 1.002 1.682.387.413.992.813 2.213 1.065l3.737.528c.261.037.501.171.674.378s.268.473.268.748v2.233c0 1.739-.781 3.289-1.979 4.228a4.25 4.25 0 0 1-2.164.905c-.787.09-1.582-.045-2.301-.392C6.046 45.493 0 36.456 0 25.93 0 11.6 11.202 0 25 0s25 11.6 25 25.93c0 10.58-6.123 19.641-14.869 23.665a4.19 4.19 0 0 1-2.297.375c-.784-.095-1.529-.41-2.155-.912a5.23 5.23 0 0 1-1.461-1.869c-.342-.733-.517-1.538-.51-2.352v-6.717c0-.152-.102-1.03-.671-2.211a1.18 1.18 0 0 1 .016-1.051c.083-.161.203-.299.348-.402s.312-.167.486-.188c1.068-.14 2.119-.399 3.133-.774 1.237-.457 2.348-1.082 3.008-1.852.981-1.143 1.471-2.022 1.74-2.972.279-.985.35-2.13.35-3.898 0-2.48-1.25-4.565-1.825-5.237-.13-.152-.22-.337-.258-.538s-.024-.407.041-.599a17.62 17.62 0 0 0 .781-3.378c.067-.598.071-1.098.013-1.459-.013-.132-.051-.26-.113-.376a.97.97 0 0 0-.431.02c-.354.07-.806.243-1.319.509-1.021.526-2.083 1.304-2.742 1.861-.145.123-.318.204-.503.237a1.04 1.04 0 0 1-.549-.052c-1.687-.576-3.442-.907-5.215-.985-2.098.052-4.519.674-5.346.985a1.04 1.04 0 0 1-.549.052c-.184-.032-.358-.114-.503-.237-.851-.715-1.77-1.339-2.742-1.861-.417-.229-.861-.4-1.321-.509-.14-.038-.286-.045-.429-.02-.061.116-.1.244-.113.376-.058.361-.054.861.013 1.459a17.77 17.77 0 0 0 .781 3.378c.131.391.05.826-.217 1.137-.575.672-1.825 2.756-1.825 5.237 0 1.765.071 2.913.35 3.898.271.95.758 1.826 1.738 2.972.662.77 1.771 1.395 3.01 1.852a14.46 14.46 0 0 0 3.131.774c.22.025.427.118.594.269s.287.351.342.574a1.18 1.18 0 0 1-.031.675 1.13 1.13 0 0 1-.393.537c-.344.256-.571.717-.698 1.25a4.39 4.39 0 0 0-.117.837v.041a1.17 1.17 0 0 1-.263.752 1.08 1.08 0 0 1-.673.385h0z" fill="#1096e1"/></svg>
